assets/svg/icon_block_checkbox_onblue.svg

<svg width="24" height="24" viewBox="0 0 24 24" fill="none" xmlns="http://www.w3.org/2000/svg">
<path fill-rule="evenodd" clip-rule="evenodd" d="M3 12C3 19.15 4.85095 21 12 21C19.1491 21 21 19.15 21 12C21 4.85004 19.1491 3 12 3C4.85095 3 3 4.85004 3 12ZM16.995 9.68247C17.2683 9.40911 17.2683 8.96589 16.995 8.69253C16.7216 8.41916 16.2784 8.41916 16.005 8.69253L10.875 13.8225L8.55747 11.505C8.28411 11.2317 7.84089 11.2317 7.56753 11.505C7.29416 11.7784 7.29416 12.2216 7.56753 12.495L10.38 15.3075C10.6534 15.5808 11.0966 15.5808 11.37 15.3075L16.995 9.68247Z" fill="#0166FF"/>
</svg>

<svg xmlns="http://www.w3.org/2000/svg" width="24" height="24" fill="none"><path fill="#0166FF" fill-rule="evenodd" d="M3 12c0 7.15 1.851 9 9 9 7.15 0 9-1.85 9-9s-1.85-9-9-9c-7.149 0-9 1.85-9 9m13.995-2.318a.7.7 0 0 0-.99-.99l-5.13 5.13-2.318-2.317a.7.7 0 0 0-.99.99l2.813 2.813a.7.7 0 0 0 .99 0z" clip-rule="evenodd"/></svg>
